Flat-Remix-Dark/apps/scalable/pushbullet-indicator.svg

<svg xmlns="http://www.w3.org/2000/svg" xmlns:xlink="http://www.w3.org/1999/xlink" width="384pt" height="384pt" version="1.1" viewBox="0 0 384 384">
 <defs>
  <filter id="alpha" width="100%" height="100%" x="0%" y="0%" filterUnits="objectBoundingBox">
   <feColorMatrix in="SourceGraphic" type="matrix" values="0 0 0 0 1 0 0 0 0 1 0 0 0 0 1 0 0 0 1 0"/>
  </filter>
  <mask id="mask0">
   <g filter="url(#alpha)">
    <rect width="384" height="384" x="0" y="0" style="fill:rgb(0%,0%,0%);fill-opacity:0.2"/>
   </g>
  </mask>
  <clipPath id="clip1">
   <rect width="384" height="384" x="0" y="0"/>
  </clipPath>
  <g id="surface5" clip-path="url(#clip1)">
   <path style="fill:rgb(0%,0%,0%)" d="M 103.992188 138.007812 L 135.996094 138.007812 C 140.410156 138.007812 144 141.269531 144 145.3125 L 144 262.664062 C 144 266.703125 140.40625 269.996094 136 269.996094 L 103.996094 269.996094 C 99.59375 269.996094 96 266.710938 96 262.664062 L 96 145.316406 C 96 141.273438 99.59375 138.007812 104 138.007812"/>
   <path style="fill:rgb(0%,0%,0%)" d="M 163.542969 138.007812 C 159.367188 138.007812 155.996094 141.269531 155.996094 145.3125 L 155.996094 262.636719 C 155.996094 266.675781 159.367188 269.96875 163.546875 269.96875 C 186.289062 269.96875 209.015625 270 231.773438 270 C 269.445312 269.988281 300 240.433594 300 203.992188 C 300 167.554688 269.445312 138 231.773438 138 L 163.546875 138 Z M 163.542969 138.007812"/>
  </g>
  <mask id="mask1">
   <g filter="url(#alpha)">
    <rect width="384" height="384" x="0" y="0" style="fill:rgb(0%,0%,0%);fill-opacity:0.2"/>
   </g>
  </mask>
  <clipPath id="clip2">
   <rect width="384" height="384" x="0" y="0"/>
  </clipPath>
  <g id="surface8" clip-path="url(#clip2)">
   <path style="fill:rgb(100%,100%,100%)" d="M 192 24 C 98.929688 24 24 98.929688 24 192 C 24 192.679688 24.066406 193.34375 24.105469 194.015625 C 26.214844 102.804688 100.265625 30 192 30 C 283.734375 30 357.785156 102.804688 359.894531 194.015625 C 359.933594 193.34375 360 192.679688 360 192 C 360 98.929688 285.070312 24 192 24 Z M 192 24"/>
  </g>
  <mask id="mask2">
   <g filter="url(#alpha)">
    <rect width="384" height="384" x="0" y="0" style="fill:rgb(0%,0%,0%);fill-opacity:0.2"/>
   </g>
  </mask>
  <clipPath id="clip3">
   <rect width="384" height="384" x="0" y="0"/>
  </clipPath>
  <g id="surface11" clip-path="url(#clip3)">
   <path style="fill:rgb(0%,0%,0%)" d="M 24.105469 195.984375 C 24.066406 196.65625 24 197.320312 24 198 C 24 291.070312 98.929688 366 192 366 C 285.070312 366 360 291.070312 360 198 C 360 197.320312 359.933594 196.65625 359.894531 195.984375 C 357.785156 287.195312 283.734375 360 192 360 C 100.265625 360 26.214844 287.195312 24.105469 195.984375 Z M 24.105469 195.984375"/>
  </g>
 </defs>
 <g>
  <path style="fill:rgb(29.019608%,70.196078%,40.392157%)" d="M 360 192 C 360 99.214844 284.785156 24 192 24 C 99.214844 24 24 99.214844 24 192 C 24 284.785156 99.214844 360 192 360 C 284.785156 360 360 284.785156 360 192 Z M 360 192"/>
  <use mask="url(#mask0)" xlink:href="#surface5"/>
  <path style="fill:rgb(97.647059%,97.647059%,97.647059%)" d="M 103.992188 132.007812 L 135.996094 132.007812 C 140.410156 132.007812 144 135.269531 144 139.3125 L 144 256.664062 C 144 260.703125 140.40625 263.996094 136 263.996094 L 103.996094 263.996094 C 99.59375 263.996094 96 260.710938 96 256.664062 L 96 139.316406 C 96 135.273438 99.59375 132.007812 104 132.007812"/>
  <path style="fill:rgb(97.647059%,97.647059%,97.647059%)" d="M 163.542969 132.007812 C 159.367188 132.007812 155.996094 135.269531 155.996094 139.3125 L 155.996094 256.636719 C 155.996094 260.675781 159.367188 263.96875 163.546875 263.96875 C 186.289062 263.96875 209.015625 264 231.773438 264 C 269.445312 263.988281 300 234.433594 300 197.992188 C 300 161.554688 269.445312 132 231.773438 132 L 163.546875 132 Z M 163.542969 132.007812"/>
  <use mask="url(#mask1)" xlink:href="#surface8"/>
  <use mask="url(#mask2)" xlink:href="#surface11"/>
 </g>
</svg>

<svg xmlns="http://www.w3.org/2000/svg" xmlns:xlink="http://www.w3.org/1999/xlink" width="384pt" height="384pt" version="1.1" viewBox="0 0 384 384">
 <defs>
  <filter id="alpha" width="100%" height="100%" x="0%" y="0%" filterUnits="objectBoundingBox">
   <feColorMatrix in="SourceGraphic" type="matrix" values="0 0 0 0 1 0 0 0 0 1 0 0 0 0 1 0 0 0 1 0"/>
  </filter>
  <mask id="mask0">
   <g filter="url(#alpha)">
    <rect style="fill:rgb(0%,0%,0%);fill-opacity:0.2" width="384" height="384" x="0" y="0"/>
   </g>
  </mask>
  <clipPath id="clip1">
   <rect width="384" height="384" x="0" y="0"/>
  </clipPath>
  <g id="surface5" clip-path="url(#clip1)">
   <path d="M 103.992188 138.007812 L 135.996094 138.007812 C 140.410156 138.007812 144 141.269531 144 145.3125 L 144 262.664062 C 144 266.703125 140.40625 269.996094 136 269.996094 L 103.996094 269.996094 C 99.59375 269.996094 96 266.710938 96 262.664062 L 96 145.316406 C 96 141.273438 99.59375 138.007812 104 138.007812" style="fill:rgb(0%,0%,0%)"/>
   <path d="M 163.542969 138.007812 C 159.367188 138.007812 155.996094 141.269531 155.996094 145.3125 L 155.996094 262.636719 C 155.996094 266.675781 159.367188 269.96875 163.546875 269.96875 C 186.289062 269.96875 209.015625 270 231.773438 270 C 269.445312 269.988281 300 240.433594 300 203.992188 C 300 167.554688 269.445312 138 231.773438 138 L 163.546875 138 Z M 163.542969 138.007812" style="fill:rgb(0%,0%,0%)"/>
  </g>
  <mask id="mask1">
   <g filter="url(#alpha)">
    <rect style="fill:rgb(0%,0%,0%);fill-opacity:0.2" width="384" height="384" x="0" y="0"/>
   </g>
  </mask>
  <clipPath id="clip2">
   <rect width="384" height="384" x="0" y="0"/>
  </clipPath>
  <g id="surface8" clip-path="url(#clip2)">
   <path d="M 192 24 C 98.929688 24 24 98.929688 24 192 C 24 192.679688 24.066406 193.34375 24.105469 194.015625 C 26.214844 102.804688 100.265625 30 192 30 C 283.734375 30 357.785156 102.804688 359.894531 194.015625 C 359.933594 193.34375 360 192.679688 360 192 C 360 98.929688 285.070312 24 192 24 Z M 192 24" style="fill:rgb(100%,100%,100%)"/>
  </g>
 </defs>
 <g transform="matrix(1.0044643,0,0,1.0044643,-0.10714286,-1.6071429)">
  <path d="M 360,192 C 360,99.214844 284.78516,24 192,24 99.214844,24 24,99.214844 24,192 c 0,92.78516 75.214844,168 168,168 92.78516,0 168,-75.21484 168,-168 z m 0,0" style="fill:#19a187"/>
  <use width="100%" height="100%" x="0" y="0" mask="url(#mask0)" xlink:href="#surface5"/>
  <path d="m 103.99219,132.00781 h 32.0039 c 4.41407,0 8.00391,3.26172 8.00391,7.30469 v 117.35156 c 0,4.03906 -3.59375,7.33203 -8,7.33203 H 103.99609 C 99.59375,263.99609 96,260.71094 96,256.66406 V 139.31641 c 0,-4.04297 3.59375,-7.3086 8,-7.3086" style="fill:#ffffff"/>
  <path d="m 163.54297,132.00781 c -4.17578,0 -7.54688,3.26172 -7.54688,7.30469 v 117.32422 c 0,4.03906 3.3711,7.33203 7.55078,7.33203 22.74219,0 45.46875,0.0312 68.22657,0.0312 C 269.44531,263.98828 300,234.43359 300,197.99219 300,161.55469 269.44531,132 231.77344,132 h -68.22657 z m 0,0" style="fill:#ffffff"/>
  <use width="100%" height="100%" x="0" y="0" mask="url(#mask1)" xlink:href="#surface8"/>
 </g>
 <path d="M 32.064453 250 C 32.028171 251.66322 32 253.32807 32 255 C 32 379.26584 132.73416 480 257 480 C 381.26584 480 482 379.26584 482 255 C 482 253.32807 481.97183 251.66322 481.93555 250 C 479.27516 371.95543 379.59391 470 257 470 C 134.40609 470 34.724839 371.95543 32.064453 250 z" transform="scale(0.75)" style="opacity:0.3"/>
</svg>
